X:321
T:B321-  A New Game at Cards
S:(1st/2)
Q:1/4=120
L:1/4
M:4/4
K:Dm
AA/B/cd|G3/2A/F2|EE/F/ G/A/G|AD3/4C/4C2|\
AA/B/BG|ABc2|A/G/ A/B/cd|=BGc2|\
d/c/ d/e/ff|c3/2d/e2|ef/e/ d/c/A|^c3/2d/d2|]

